neru-light-classic/22x22/emotes/face-yawn-symbolic.svg

<svg xmlns="http://www.w3.org/2000/svg" width="16" height="16"><path d="M8 1c3.87 0 7 3.13 7 7 0 3.86-3.13 7-7 7s-7-3.14-7-7c0-3.87 3.13-7 7-7zM5.53 4C4.8 4 4.06 4.44 4 5.31c-.12 1.73 1.5-.34 3 0C7 4.44 6.27 4 5.53 4zm4.94 0C9.73 4 9 4.44 9 5.31c1.5-.34 3.13 1.73 3 0-.06-.87-.8-1.31-1.53-1.31zM8 7c-1.38 0-2.5 1.34-2.5 3 0 1.65 1.12 3 2.5 3s2.5-1.35 2.5-3c0-1.66-1.12-3-2.5-3z" fill="#1e333d"/></svg>

<svg xmlns="http://www.w3.org/2000/svg" width="16" height="16" version="1.1">
 <path style="fill:#1e333d" d="M 8,1 C 11.87,1 15,4.13 15,8 15,11.86 11.87,15 8,15 4.13,15 1,11.86 1,8 1,4.13 4.13,1 8,1 Z M 5.53,4 C 4.8,4 4.06,4.44 4,5.31 3.88,7.04 5.5,4.97 7,5.31 7,4.44 6.27,4 5.53,4 Z M 10.47,4 C 9.73,4 9,4.44 9,5.31 10.5,4.97 12.13,7.04 12,5.31 11.94,4.44 11.2,4 10.47,4 Z M 8,7 C 6.62,7 5.5,8.34 5.5,10 5.5,11.65 6.62,13 8,13 9.38,13 10.5,11.65 10.5,10 10.5,8.34 9.38,7 8,7 Z"/>
</svg>
